!!!OTL: STEH NUR AUF DU JUNGER SCHWEIZERBUA
!!!ARE: Europa, Mitteleuropa, Deutschland; Schweiz ?
!!!SCT: E1481
!!!YEM: Copyright 1995, estate of Helmut Schaffrath.
**kern
*ICvox
*Ivox
*M2/4
*k[]
*C:
{16E
16F
=1
8G
16E
16F
16G
16F
16E
16F
=2
8G
16e
16d
8c}
{16G
16G
=3
8G
16f
16e
8d
16e
16d
=4
4c
8r}
{8G
=5
8F
16d
16c
8B
8G
=6
8G
16e
16d
8c}
{16G
16G
=7
16F
16G
16d
16c
8B
16G
16G
=8
8G
16e
16d
8c}
{16E
16F
=9
16G
16F
16E
16F
16G
16F
16E
16F
=10
8G
16e
16d
8c}
{16G
16G
=11
8G
16f
16e
8d
16e
16d
=12
4c
8r}
{8G
=13
8F
16d
16c
8B
8G
=14
8G
16e
16d
8c}
{16G
16G
=15
16F
16G
16d
16c
8B
16G
16G
=16
8G
16e
16d
8c}
{16E
16F
=17
16G
16F
16E
16F
16G
16F
16E
16F
=18
8G
16e
16d
8c}
{16G
16G
=19
8G
16f
16e
8d
16e
16d
=20
4c
8r}
==
!!!AGN: Staende -, Hirten -, Alpen - Lied
!!!ONB: ESAC (Essen Associative Code) Database: ERK3
!!!AMT: simple duple
!!!AIN: vox
!!!EED: Helmut Schaffrath
!!!EEV: 1.0
*-
